**harmony	**harte	**kern	**silbe	**rhyme	**timestamp	**phrase
*M4/4	*M4/4	*ICvox	*	*	*	*
*	*	*VRlead	*	*	*	*
*	*	*Hstimme	*	*	*	*
*f:	*f:	*f:	*	*	*f:	*f:
*	*	*M4/4	*	*	*	*
*	*	*clefG2	*	*	*	*
1r;	1r	r;	.	.	0	.
=1	=1	=1	=1	=1	=1	=1
*>Letter>A	*>Letter>A	*>Letter>A	*>Letter>A	*>Letter>A	*>Letter>A	*>Letter>A
*>Label>Intro	*>Label>Intro	*>Label>Intro	*>Label>Intro	*>Label>Intro	*>Label>Intro	*>Label>Intro
1Fm	F:min	1r	.	.	0.023	newline
=2	=2	=2	=2	=2	=2	=2
1Fm	F:min	1r	.	.	1.782	.
=3	=3	=3	=3	=3	=3	=3
1E-M	E-:maj	1r	.	.	3.541	.
=4	=4	=4	=4	=4	=4	=4
1E-M	E-:maj	1r	.	.	5.3	.
=5	=5	=5	=5	=5	=5	=5
1D-M	D-:maj	1r	.	.	7.059	newline
=6	=6	=6	=6	=6	=6	=6
1D-M	D-:maj	1r	.	.	8.809	.
=7	=7	=7	=7	=7	=7	=7
1Cm	C:sus4	1r	.	.	10.558	.
=8	=8	=8	=8	=8	=8	=8
1CM	C:maj	1r	.	.	12.308	.
=9	=9	=9	=9	=9	=9	=9
1Fm	F:min	1r	.	.	14.057	newline
=10	=10	=10	=10	=10	=10	=10
1Fmm	F:min7	1r	.	.	15.815	.
=11	=11	=11	=11	=11	=11	=11
1Fm	F:min6	1r	.	.	17.574	.
=12	=12	=12	=12	=12	=12	=12
1Fm	F:min(b13)	1r	.	.	19.332	.
=13	=13	=13	=13	=13	=13	=13
1Fm	F:min	1r	.	.	21.09	newline
=14	=14	=14	=14	=14	=14	=14
1Fmm	F:min7	1r	.	.	22.849	.
=15	=15	=15	=15	=15	=15	=15
1Fm	F:min6	1r	.	.	24.607	.
=16	=16	=16	=16	=16	=16	=16
1Fm	F:min(b13)	2r	.	.	26.366	.
.	.	4r	.	.	.	.
.	.	8r	.	.	.	.
.	.	8F	Hu-	.	.	.
=17	=17	=17	=17	=17	=17	=17
*>Letter>B	*>Letter>B	*>Letter>B	*>Letter>B	*>Letter>B	*>Letter>B	*>Letter>B
*>Label>Verse	*>Label>Verse	*>Label>Verse	*>Label>Verse	*>Label>Verse	*>Label>Verse	*>Label>Verse
1Fm	F:min	8F	-mi-	.	28.125	newline
.	.	8F	-di-	.	.	.
.	.	8F	-ty's	.	.	.
.	.	[8A-	ri-	.	.	.
.	.	8A-]	_	.	.	.
.	.	4.F	-sing	.	.	.
=18	=18	=18	=18	=18	=18	=18
1Fm	F:min	2r	.	.	29.899	.
.	.	4r	.	.	.	.
.	.	8r	.	.	.	.
.	.	16F	Ba-	.	.	.
.	.	16F	-ro-	.	.	.
=19	=19	=19	=19	=19	=19	=19
1Fm	F:min	8c	-me-	.	31.674	.
.	.	8B-	-ter's	.	.	.
.	.	8A-	get-	.	.	.
.	.	8B-	-ting	.	.	.
.	.	8B-	low	A	.	.
.	.	[8A-	_	.	.	.
.	.	4A-_	_	.	.	.
=20	=20	=20	=20	=20	=20	=20
1Fm	F:min	2A-]	_	.	33.449	.
.	.	4r	.	.	.	.
.	.	8r	.	.	.	.
.	.	8F	Ac-	.	.	.
=21	=21	=21	=21	=21	=21	=21
1Fm	F:min	8F	-cor-	.	35.224	newline
.	.	8F	-ding	.	.	.
.	.	8F	to	.	.	.
.	.	[8F	all	.	.	.
.	.	8F]	_	.	.	.
.	.	4A-	sour-	.	.	.
.	.	[8F	-ces	.	.	.
=22	=22	=22	=22	=22	=22	=22
1Fm	F:min	2F]	_	.	36.988	.
.	.	4r	.	.	.	.
.	.	8r	.	.	.	.
.	.	8B-	the	.	.	.
=23	=23	=23	=23	=23	=23	=23
1Cm	C:sus4	4c	street's	.	38.752	.
.	.	8c	the	.	.	.
.	.	[8e-	place	.	.	.
.	.	8e-]	_	.	.	.
.	.	4c	to	.	.	.
.	.	[8B-	go	A	.	.
=24	=24	=24	=24	=24	=24	=24
1CM	C:maj	4B-]	_	.	40.515	.
.	.	4c	_	.	.	.
.	.	4r	.	.	.	.
.	.	8c	'cause	.	.	.
.	.	8c	to-	.	.	.
=25	=25	=25	=25	=25	=25	=25
1Fm	F:min	4f	-night	.	42.279	newline
.	.	2f	for	.	.	.
.	.	8f	the	.	.	.
.	.	[8a-	first	.	.	.
=26	=26	=26	=26	=26	=26	=26
1Fm	F:min	8a-]	_	.	44.028	.
.	.	8f	time	.	.	.
.	.	[4a-	_	.	.	.
.	.	4a-]	_	.	.	.
.	.	4r	.	.	.	.
=27	=27	=27	=27	=27	=27	=27
1B-mm	B-:min7	8b-	just	.	45.778	.
.	.	8b-	a-	.	.	.
.	.	4b-	-bout	.	.	.
.	.	4cc	half	.	.	.
.	.	4b-	past	.	.	.
=28	=28	=28	=28	=28	=28	=28
1B-mm	B-:min7	2a-	ten	B	47.527	.
.	.	4r	.	.	.	.
.	.	8cc	For	.	.	.
.	.	8cc	the	.	.	.
=29	=29	=29	=29	=29	=29	=29
1Cm	C:sus4	4cc	first	.	49.277	newline
.	.	4.cc	time	.	.	.
.	.	8r	.	.	.	.
.	.	8cc	in	.	.	.
.	.	[8cc	his-	.	.	.
=30	=30	=30	=30	=30	=30	=30
1CM	C:maj	8cc]	_	.	51.043	.
.	.	4cc	-to-	.	.	.
.	.	[8cc	-ry	.	.	.
.	.	8cc]	_	.	.	.
.	.	8r	.	.	.	.
.	.	8r	.	.	.	.
.	.	8cc	It's	.	.	.
=31	=31	=31	=31	=31	=31	=31
1Cm	C:sus4	8cc	gon-	.	52.81	.
.	.	8cc	-na	.	.	.
.	.	4cc	start	.	.	.
.	.	4cc	rai-	.	.	.
.	.	8cc	-ning	.	.	.
.	.	[8cc	men	B	.	.
=32	=32	=32	=32	=32	=32	=32
1CM	C:maj	1cc]	_	.	54.576	.
=33	=33	=33	=33	=33	=33	=33
1CM	C:maj	4r	.	.	56.343	newline
.	.	4cc	It's	.	.	.
.	.	4cc	rai-	.	.	.
.	.	8b-	-ning	.	.	.
.	.	[8a-	men	B	.	.
=34	=34	=34	=34	=34	=34	=34
*>Letter>C	*>Letter>C	*>Letter>C	*>Letter>C	*>Letter>C	*>Letter>C	*>Letter>C
*>Label>Chorus	*>Label>Chorus	*>Label>Chorus	*>Label>Chorus	*>Label>Chorus	*>Label>Chorus	*>Label>Chorus
1D-M	D-:maj	4a-]	_	.	58.126	newline
.	.	4r	.	.	.	.
.	.	8r	.	.	.	.
.	.	8a-	Hal-	.	.	.
.	.	8a-	-le-	.	.	.
.	.	[8a-	-lu	.	.	.
=35	=35	=35	=35	=35	=35	=35
1E-M	E-:maj	8a-]	_	.	59.876	.
.	.	8g	jah	.	.	.
.	.	4g	it's	.	.	.
.	.	4g	rai-	.	.	.
.	.	8g	-ning	.	.	.
.	.	[8g	men	B	.	.
=36	=36	=36	=36	=36	=36	=36
1CM	C:maj	4g]	_	.	61.626	.
.	.	4r	.	.	.	.
.	.	8r	.	.	.	.
.	.	[8b-	A-	.	.	.
.	.	8b-]	_	.	.	.
.	.	8b-	-men	B	.	.
=37	=37	=37	=37	=37	=37	=37
1Fm	F:min	4a-	_	.	63.376	.
.	.	4r	.	.	.	.
.	.	8r	.	.	.	.
.	.	8B-	I'm	.	.	.
.	.	8B-	gon-	.	.	.
.	.	8A-	-na	.	.	.
=38	=38	=38	=38	=38	=38	=38
1D-M	D-:maj	4B-	go	.	65.126	newline
.	.	4B-	out	.	.	.
.	.	8r	.	.	.	.
.	.	8A-	to	.	.	.
.	.	8B-	run	.	.	.
.	.	8A-	and	.	.	.
=39	=39	=39	=39	=39	=39	=39
1B-m	B-:min	8B-	let	.	66.902	.
.	.	8A-	my-	.	.	.
.	.	4B-	-self	.	.	.
.	.	4B-	get	C	.	.
.	.	4r	.	.	.	.
=40	=40	=40	=40	=40	=40	=40
1B-m	B-:min/2	4c	Ab-	.	68.678	.
.	.	8c	-so-	.	.	.
.	.	[8e	-lute-	.	.	.
.	.	8e]	_	.	.	.
.	.	4e	-ly	.	.	.
.	.	[8g	soak-	.	.	.
=41	=41	=41	=41	=41	=41	=41
1CMm	C:7	8g]	_	.	70.454	.
.	.	4g	-ing	.	.	.
.	.	[8b-	wet!	C	.	.
.	.	2b-]	_	.	.	.
=42	=42	=42	=42	=42	=42	=42
1CMm	C:7	4r	.	.	72.23	.
.	.	4c	It's	.	.	.
.	.	4f	rai-	.	.	.
.	.	8g	-ning	.	.	.
.	.	[8a-	men	B	.	.
=43	=43	=43	=43	=43	=43	=43
1D-M	D-:maj	4a-]	_	.	74.006	newline
.	.	4r	.	.	.	.
.	.	8r	.	.	.	.
.	.	8a-	Hal-	.	.	.
.	.	8a-	-le-	.	.	.
.	.	[8a-	-lu	.	.	.
=44	=44	=44	=44	=44	=44	=44
1E-M	E-:maj	8a-]	_	.	75.742	.
.	.	8g	jah	.	.	.
.	.	4g	it's	.	.	.
.	.	4g	rai-	.	.	.
.	.	8g	-ning	.	.	.
.	.	[8g	men	B	.	.
=45	=45	=45	=45	=45	=45	=45
1CM	C:maj	4g]	_	.	77.479	.
.	.	4r	.	.	.	.
.	.	8r	.	.	.	.
.	.	8f	Eve-	.	.	.
.	.	8g	-ry	.	.	.
.	.	[8a-	Spe-	.	.	.
=46	=46	=46	=46	=46	=46	=46
1Fm	F:min	8a-]	_	.	79.215	.
.	.	4g	-ci-	.	.	.
.	.	[8f	-men!	B	.	.
.	.	8f]	_	.	.	.
.	.	8a-	_	.	.	.
.	.	4r	.	.	.	.
=47	=47	=47	=47	=47	=47	=47
1D-M	D-:maj	4cc	Tall,	.	80.951	newline
.	.	4r	.	.	.	.
.	.	4cc	blonde,	.	.	.
.	.	4r	.	.	.	.
=48	=48	=48	=48	=48	=48	=48
1B-m	B-:min	4cc	dark	.	82.72	.
.	.	8b-	and	.	.	.
.	.	[8cc	lean	D	.	.
.	.	4cc]	_	.	.	.
.	.	4r	.	.	.	.
=49	=49	=49	=49	=49	=49	=49
1B-m	B-:min/2	4e	Rough	.	84.488	.
.	.	8e	and	.	.	.
.	.	[8g	tough	.	.	.
.	.	8g]	_	.	.	.
.	.	4g	and	.	.	.
.	.	[8b-	strong	.	.	.
=50	=50	=50	=50	=50	=50	=50
1CMm	C:7	8b-]	_	.	86.256	.
.	.	4b-	and	.	.	.
.	.	[8cc	mean	D	.	.
.	.	2cc_	_	.	.	.
=51	=51	=51	=51	=51	=51	=51
1CMm	C:7	2.cc]	_	.	88.025	.
.	.	4r	.	.	.	.
=52	=52	=52	=52	=52	=52	=52
*>Letter>D	*>Letter>D	*>Letter>D	*>Letter>D	*>Letter>D	*>Letter>D	*>Letter>D
*>Label>Bridge	*>Label>Bridge	*>Label>Bridge	*>Label>Bridge	*>Label>Bridge	*>Label>Bridge	*>Label>Bridge
1D-M	D-:maj	4cc	God	.	89.793	newline
.	.	4cc	bless	.	.	.
.	.	8cc	Mot-	.	.	.
.	.	4cc	-her	.	.	.
.	.	[8cc	Nat-	.	.	.
=53	=53	=53	=53	=53	=53	=53
1E-M	E-:maj	8cc]	_	.	91.557	.
.	.	4.b-	-ure	.	.	.
.	.	2r	.	.	.	.
=54	=54	=54	=54	=54	=54	=54
1CM	C:maj	4r	.	.	93.321	.
.	.	8cc	she's	.	.	.
.	.	8cc	a	.	.	.
.	.	4cc	sin-	.	.	.
.	.	8cc	-gle	.	.	.
.	.	[8ff	wo-	.	.	.
=55	=55	=55	=55	=55	=55	=55
1Fm	F:min	8ff]	_	.	95.085	.
.	.	4cc	-man	B	.	.
.	.	[8b-	too	E	.	.
.	.	8b-]	_	.	.	.
.	.	4a-	_	.	.	.
.	.	8r	.	.	.	.
=56	=56	=56	=56	=56	=56	=56
1D-M	D-:maj	4r	.	.	96.85	newline
.	.	8cc	She	.	.	.
.	.	8cc	took	.	.	.
.	.	8r	.	.	.	.
.	.	8cc	off	.	.	.
.	.	8cc	to	.	.	.
.	.	[8cc	hea-	.	.	.
=57	=57	=57	=57	=57	=57	=57
1E-M	E-:maj	8cc]	_	.	98.613	.
.	.	[4.b-	-ven	B	.	.
.	.	4b-]	_	.	.	.
.	.	4r	.	.	.	.
=58	=58	=58	=58	=58	=58	=58
1CM	C:maj	8b-	and	.	100.377	.
.	.	8a-	she	.	.	.
.	.	4b-	did	.	.	.
.	.	4b-	what	.	.	.
.	.	4a-	she	.	.	.
=59	=59	=59	=59	=59	=59	=59
1Fm	F:min	4cc	had	.	102.141	.
.	.	4b-	to	.	.	.
.	.	4a-	do	E	.	.
.	.	4f	_	.	.	.
=60	=60	=60	=60	=60	=60	=60
1D-M	D-:maj	4r	.	.	103.904	newline
.	.	8cc	She	.	.	.
.	.	8cc	taught	.	.	.
.	.	8r	.	.	.	.
.	.	8cc	eve-	.	.	.
.	.	8cc	-ry	.	.	.
.	.	[8cc	an-	F	.	.
=61	=61	=61	=61	=61	=61	=61
1E-M	E-:maj	8cc]	_	.	105.663	.
.	.	[4.b-	-gel	.	.	.
.	.	4b-]	_	.	.	.
.	.	4r	.	.	.	.
=62	=62	=62	=62	=62	=62	=62
1CM	C:maj	4cc	She	.	107.421	.
.	.	8cc	re-	.	.	.
.	.	8dd-	-ar-	.	.	.
.	.	4cc	-range	F	.	.
.	.	8b-	the	.	.	.
.	.	[8a-	sky	G	.	.
=63	=63	=63	=63	=63	=63	=63
1Fm	F:min	8a-]	_	.	109.179	.
.	.	8r	.	.	.	.
.	.	4r	.	.	.	.
.	.	8r	.	.	.	.
.	.	8f	so	.	.	.
.	.	8g	that	.	.	.
.	.	8a-	each	.	.	.
=64	=64	=64	=64	=64	=64	=64
2B-m	B-:min	8r	.	.	110.938	newline
.	.	8a-	and	.	.	.
.	.	8r	.	.	.	.
.	.	8a-	eve-	.	.	.
2Fm	F:min/5	8r	.	.	111.815	.
.	.	8a-	-ry	.	.	.
.	.	8r	.	.	.	.
.	.	8cc	wo	.	.	.
=65	=65	=65	=65	=65	=65	=65
2D-M	D-:maj	8a-	_	.	112.692	.
.	.	8b-	man	B	.	.
.	.	4a-	_	.	.	.
2Ddm	D:hdim7	4r	.	.	113.569	.
.	.	8r	.	.	.	.
.	.	8f	could	.	.	.
=66	=66	=66	=66	=66	=66	=66
2CM	C:maj/3	4cc	find	.	114.447	.
.	.	8cc	her	.	.	.
.	.	[8cc	per-	.	.	.
2Fm	F:min	8cc]	_	.	115.324	.
.	.	4cc	-fect	.	.	.
.	.	[8cc	guy	G	.	.
=67	=67	=67	=67	=67	=67	=67
2CM	C:maj/5	1cc_	_	.	116.201	.
2Fm	F:min/b3	.	.	.	117.079	.
=68	=68	=68	=68	=68	=68	=68
1Cm	C:sus4	1cc]	_	.	117.956	newline
=69	=69	=69	=69	=69	=69	=69
1CM	C:maj	4r	.	.	119.745	.
.	.	8cc	Ooh	.	.	.
.	.	8a-	it's	.	.	.
.	.	8b-	rai-	.	.	.
.	.	8b-	-ning	.	.	.
.	.	8a-	men	B	.	.
.	.	8r	.	.	.	.
=70	=70	=70	=70	=70	=70	=70
1Fm	F:min	2.f	yeah	.	121.535	newline
.	.	4r	.	.	.	.
=71	=71	=71	=71	=71	=71	=71
1Fm	F:min	2r	.	.	123.27	.
.	.	4r	.	.	.	.
.	.	8r	.	.	.	.
.	.	8F	Hu-	.	.	.
=72	=72	=72	=72	=72	=72	=72
*>Letter>B2	*>Letter>B2	*>Letter>B2	*>Letter>B2	*>Letter>B2	*>Letter>B2	*>Letter>B2
*>Label>Verse	*>Label>Verse	*>Label>Verse	*>Label>Verse	*>Label>Verse	*>Label>Verse	*>Label>Verse
1Fm	F:min	16F	-mi-	.	125.005	newline
.	.	16F	-di-	.	.	.
.	.	8F	-ty	.	.	.
.	.	8F	is	.	.	.
.	.	[8A-	ri-	.	.	.
.	.	8A-]	_	.	.	.
.	.	[4.F	-sing	.	.	.
=73	=73	=73	=73	=73	=73	=73
1Fm	F:min	2F]	_	.	126.783	.
.	.	2r	.	.	.	.
=74	=74	=74	=74	=74	=74	=74
1Fm	F:min	1r	.	.	128.561	.
=75	=75	=75	=75	=75	=75	=75
1Fm	F:min	1r	.	.	130.34	.
=76	=76	=76	=76	=76	=76	=76
1Fm	F:min	24c	Ba-	.	132.118	newline
.	.	24c	-ro-	.	.	.
.	.	24c	-me-	.	.	.
.	.	8c	-ter's	.	.	.
.	.	16c	get-	.	.	.
.	.	8.c	-ting	.	.	.
.	.	8d-	low	A	.	.
.	.	[8c	_	.	.	.
.	.	4c_	_	.	.	.
=77	=77	=77	=77	=77	=77	=77
1Fm	F:min	2c]	_	.	133.872	.
.	.	2r	.	.	.	.
=78	=78	=78	=78	=78	=78	=78
1Fm	F:min	1r	.	.	135.627	.
=79	=79	=79	=79	=79	=79	=79
1Fm	F:min	2r	.	.	137.381	.
.	.	4r	.	.	.	.
.	.	8r	.	.	.	.
.	.	8F	Ac-	.	.	.
=80	=80	=80	=80	=80	=80	=80
1Fm	F:min	8F	-cor-	.	139.136	newline
.	.	8F	-ding	.	.	.
.	.	8F	to	.	.	.
.	.	[8F	all	.	.	.
.	.	8F]	_	.	.	.
.	.	4A-	sour-	.	.	.
.	.	[8F	-ces	.	.	.
=81	=81	=81	=81	=81	=81	=81
1Fm	F:min	2F]	_	.	140.901	.
.	.	2r	.	.	.	.
=82	=82	=82	=82	=82	=82	=82
1Fm	F:min	1r	.	.	142.666	.
=83	=83	=83	=83	=83	=83	=83
1Fm	F:min	2r	.	.	144.431	.
.	.	4r	.	.	.	.
.	.	8r	.	.	.	.
.	.	8B-	the	.	.	.
=84	=84	=84	=84	=84	=84	=84
1Cm	C:sus4	4c	street's	.	146.196	newline
.	.	8c	the	.	.	.
.	.	[8e-	place	.	.	.
.	.	8e-]	_	.	.	.
.	.	4c	to	.	.	.
.	.	[8B-	go	A	.	.
=85	=85	=85	=85	=85	=85	=85
1CM	C:maj	4B-]	_	.	147.944	.
.	.	4c	_	.	.	.
.	.	4r	.	.	.	.
.	.	8f	'cause	.	.	.
.	.	8f	to-	.	.	.
=86	=86	=86	=86	=86	=86	=86
1Fm	F:min	4cc	-night	.	149.692	newline
.	.	2cc	for	.	.	.
.	.	8cc	the	.	.	.
.	.	[8ee-	first	.	.	.
=87	=87	=87	=87	=87	=87	=87
1Fm	F:min	8ee-]	_	.	151.471	.
.	.	4cc	time	.	.	.
.	.	[8f	_	.	.	.
.	.	4f]	_	.	.	.
.	.	4r	.	.	.	.
=88	=88	=88	=88	=88	=88	=88
1B-mm	B-:min7	4cc	just	.	153.25	.
.	.	8b-	a-	.	.	.
.	.	8a-	-bout	.	.	.
.	.	4cc	half	.	.	.
.	.	4b-	past	.	.	.
=89	=89	=89	=89	=89	=89	=89
1B-mm	B-:min7	2a-	ten	B	155.029	.
.	.	4r	.	.	.	.
.	.	8cc	For	.	.	.
.	.	8cc	the	.	.	.
=90	=90	=90	=90	=90	=90	=90
1Cm	C:sus4	4cc	first	.	156.808	newline
.	.	2cc	time	.	.	.
.	.	8cc	in	.	.	.
.	.	[8ee-	his-	.	.	.
=91	=91	=91	=91	=91	=91	=91
1CM	C:maj	8ee-]	_	.	158.569	.
.	.	4cc	-to-	.	.	.
.	.	[8cc	-ry	.	.	.
.	.	8cc]	_	.	.	.
.	.	8r	.	.	.	.
.	.	8r	.	.	.	.
.	.	8cc	It's	.	.	.
=92	=92	=92	=92	=92	=92	=92
1Cm	C:sus4	8cc	gon-	.	160.33	.
.	.	8cc	-na	.	.	.
.	.	4cc	start	.	.	.
.	.	8cc	rai-	.	.	.
.	.	4cc	-ning	.	.	.
.	.	[8ee	men	B	.	.
=93	=93	=93	=93	=93	=93	=93
1CM	C:maj	1ee]	_	.	162.091	.
=94	=94	=94	=94	=94	=94	=94
1Cm	C:sus4	1ff	_	.	163.852	newline
=95	=95	=95	=95	=95	=95	=95
1CM	C:maj	4r	.	.	165.601	.
.	.	4cc	It's	.	.	.
.	.	4cc	rai-	.	.	.
.	.	8cc	-ning	.	.	.
.	.	[8cc	men	B	.	.
=96	=96	=96	=96	=96	=96	=96
*>Letter>C2	*>Letter>C2	*>Letter>C2	*>Letter>C2	*>Letter>C2	*>Letter>C2	*>Letter>C2
*>Label>Outro	*>Label>Outro	*>Label>Outro	*>Label>Outro	*>Label>Outro	*>Label>Outro	*>Label>Outro
1D-M	D-:maj	4cc]	_	.	167.35	newline
.	.	4r	.	.	.	.
.	.	8r	.	.	.	.
.	.	8cc	Hal-	.	.	.
.	.	8cc	-le-	.	.	.
.	.	[8cc	-lu	.	.	.
=97	=97	=97	=97	=97	=97	=97
1E-M	E-:maj	8cc]	_	.	169.102	.
.	.	8b-	jah	.	.	.
.	.	4b-	it's	.	.	.
.	.	4b-	rai-	.	.	.
.	.	8b-	-ning	.	.	.
.	.	[8b-	men	B	.	.
=98	=98	=98	=98	=98	=98	=98
1CM	C:maj	4b-]	_	.	170.854	.
.	.	4r	.	.	.	.
.	.	8r	.	.	.	.
.	.	[8b-	A-	.	.	.
.	.	8b-]	_	.	.	.
.	.	[8cc	-men	B	.	.
=99	=99	=99	=99	=99	=99	=99
1Fm	F:min	8cc]	_	.	172.606	.
.	.	8r	.	.	.	.
.	.	4cc	It's	.	.	.
.	.	4ee-	rai-	.	.	.
.	.	8cc	-ning	.	.	.
.	.	[8b-	men	B	.	.
=100	=100	=100	=100	=100	=100	=100
1D-M	D-:maj	4a-	_	.	174.358	newline
.	.	4r	.	.	.	.
.	.	8r	.	.	.	.
.	.	8cc	Hal-	.	.	.
.	.	8cc	-le-	.	.	.
.	.	[8cc	-lu	.	.	.
=101	=101	=101	=101	=101	=101	=101
1E-M	E-:maj	8cc]	_	.	176.11	.
.	.	8b-]	jah	.	.	.
.	.	4g	it's	.	.	.
.	.	4g	rai-	.	.	.
.	.	8g	-ning	.	.	.
.	.	[8g	men	B	.	.
=102	=102	=102	=102	=102	=102	=102
1CM	C:maj	4g]	_	.	177.862	.
.	.	4r	.	.	.	.
.	.	8r	.	.	.	.
.	.	[8g	A-	.	.	.
.	.	8g]	_	.	.	.
.	.	[8a-	-men	B	.	.
=103	=103	=103	=103	=103	=103	=103
1Fm	F:min	8a-]	_	.	179.614	.
.	.	8r	.	.	.	.
.	.	4cc	It's	.	.	.
.	.	4b-	rai-	.	.	.
.	.	8cc	-ning	.	.	.
.	.	8b-	men	B	.	.
=104	=104	=104	=104	=104	=104	=104
1D-M	D-:maj	4a-	_	.	181.366	newline
.	.	4r	.	.	.	.
.	.	6r	.	.	.	.
.	.	6cc	Ha-	.	.	.
.	.	6cc	-le-	.	.	.
=105	=105	=105	=105	=105	=105	=105
1E-M	E-:maj	6dd-	-lu-	.	183.123	.
.	.	6cc	-jah!	.	.	.
.	.	[6cc	It's	.	.	.
.	.	8cc]	_	.	.	.
.	.	8cc	rai-	.	.	.
.	.	8b-	-ning	.	.	.
.	.	[8cc	men	B	.	.
=106	=106	=106	=106	=106	=106	=106
1CM	C:maj	8cc]	_	.	184.88	.
.	.	8r	.	.	.	.
.	.	4r	.	.	.	.
.	.	8r	.	.	.	.
.	.	[8b-	A-	.	.	.
.	.	8b-]	_	.	.	.
.	.	8a-	-men	B	.	.
=107	=107	=107	=107	=107	=107	=107
1Fm	F:min	8r	.	.	186.637	.
.	.	[8a-	It's	.	.	.
.	.	8a-]	_	.	.	.
.	.	4.cc	rai-	.	.	.
.	.	8b-	-ning	.	.	.
.	.	[8a-	men	B	.	.
=108	=108	=108	=108	=108	=108	=108
1D-M	D-:maj	4a-]	_	.	188.394	newline
.	.	4r	.	.	.	.
.	.	2r	.	.	.	.
=109	=109	=109	=109	=109	=109	=109
1E-M	E-:maj	1r	.	.	190.163	.
=110	=110	=110	=110	=110	=110	=110
1CM	C:maj	1r	.	.	191.932	.
=111	=111	=111	=111	=111	=111	=111
1Fm	F:min	1r	.	.	193.701	.
=112	=112	=112	=112	=112	=112	=112
*>Label>>Fadeout	*>Label>>Fadeout	*>Label>>Fadeout	*>Label>>Fadeout	*>Label>>Fadeout	*>Label>>Fadeout	*>Label>>Fadeout
1D-M	D-:maj	4cc	Tall,	.	195.469	newline
.	.	4r	.	.	.	.
.	.	4cc	blonde,	.	.	.
.	.	4r	.	.	.	.
=113	=113	=113	=113	=113	=113	=113
1E-M	E-:maj	4cc	dark	.	197.237	.
.	.	8b-	and	.	.	.
.	.	[8cc	lean	D	.	.
.	.	4cc]	_	.	.	.
.	.	4r	.	.	.	.
=114	=114	=114	=114	=114	=114	=114
1CM	C:maj	4cc	Rough	.	199.004	.
.	.	8cc	and	.	.	.
.	.	[8cc	tough	.	.	.
.	.	8cc]	_	.	.	.
.	.	4cc	and	.	.	.
.	.	[8ff	strong	.	.	.
=115	=115	=115	=115	=115	=115	=115
1Fm	F:min	8ff]	_	.	200.772	.
.	.	4ff	and	.	.	.
.	.	[8ff	mean	D	.	.
.	.	2ff]	_	.	.	.
=116	=116	=116	=116	=116	=116	=116
1D-M	D-:maj	1r	.	.	202.539	newline
=117	=117	=117	=117	=117	=117	=117
1E-M	E-:maj	1r	.	.	204.208	.
=118	=118	=118	=118	=118	=118	=118
1CM	C:maj	1r	.	.	205.877	.
=119	=119	=119	=119	=119	=119	=119
1Fm	F:min	1r	.	.	207.546	.
1r;	1r	r;	.	.	209.215	.
*-	*-	*-	*-	*-	*-	*-
!!!BillboardChartDate: 1983/01/29
!!!BillboardPeak: 46
!!!BillboardWeeksOnChart: 11
!!!COC: The Weather Girls
!!!EMD: Section labels seem weird... -Nat
!!!ENC: Nathaniel Condit-Schultz
!!!EST: Awating manual error checking and editing.
!!!OTL: It's Raining Men
!!!RDF**chordsym: original McGill chord annotation + (implied pitch class set, with bass pitch in first position)
!!!RDF**harmony: **recip + pitch class of root + harmonic quality
!!!RDF**leadinstrument: original McGill primary instrumentation annotation
!!!RDF**phrase: newline = linebreak in original McGill transcription
!!!RDF**timestamp: McGill audio timestamp in seconds
!!!RDT: 2017/01/12/
!!!SampleActualRank: 78
!!!SampleID#: 0651
!!!SampleTargetRank: 80
!!!MBID: 0c578aa6-67ae-4dcb-b637-cd03c12a8f74